X:1309
T:Strathglass House
P:Mr Muir Mackenzie's Favourite
C:Mr Sharpe of Hoddom
R:Strathspey (8x32)
B:RSCDS 13-9
Z:Anselm Lingnau <anselm@strathspey.org>
M:4/4
L:1/8
K:D
f|"D"d2 A>G F<D DE/F/|"Em"G>F E>D "A7"C<A, B>c|\
  "D"d>e d>B A>F "Em"G>B|"D"A<F "A7"E>G "D"F<D D f|
  "D"d2 A>G F<D DE/F/|"Em"G>F E>D "A7"C<A, B>c|\
  "D"d>e d>B A>F "Em"G>B|"D"A<F "A7"E>G "D"F<D D||
f/g/|"D"a>b a>g "Bm"f>e f<d|"Em"g>f e>d "A7"c>B c<A|\
  "D"a>b "A"a>g "Bm"f>e f<d|"Em"g>e "A7"a>f "D"d2 f/g/|
  "D"a>b a>g "Bm"f<d e>f|"Em"g>f e>d "A7"c<A B>c|\
  "Bm"d>e f<d "Em"e>f g<e|"A7"f<a c>e "D"d2|]
